X:1
T:Title
%%score { 1 | 2 }
L:1/8
Q:1/4=81
M:6/8
K:C
V:1 treble nm="Grand Piano"
V:2 bass 
V:1
 [CE][DF][_E^F] [=EG][EA][Ec] | [FB]2 d A3 | FGA BdB | [EA]2 [Ec] [EG]3 | [CE][EA]G F[FB]A | %5
w: Charles~Gabriel,~Jr. * * * * *|||||
 G2 [Ge] d3 | cBc Gce | d2 B [Ec]3 | [EG]>[CE][EG] [Ec]<[Ec][Ed] | [Fc]2 [FB] [FB]3 | B>dB AcB | %11
w: ||||||
 [FA]2 [EG] [EG]3 | [CE][EA]G F[FB]A | G2 [Ge] d3 | cBc Gce | f2 B [Ec]3 |] %16
w: |||||
V:2
 [C,G,][C,G,][C,A,] [C,C][C,C][C,G,] | [D,G,]2[K:treble] [G,B,F] [G,B,F]3 | %2
 [G,B,D][G,B,F][G,B,F] [G,DF][G,B,F][G,B,F] | [C,C]2 [C,G,] [C,C]3 | %4
 [C,G,][C,C][E,C] [D,G,B,][D,G,][F,B,D] | [E,C]2 [C,C] [F,A,F]3 | %6
 [^F,A,_E][F,A,E][F,A,E][K:treble] [G,C=E][G,EG][G,CG] | [G,B,F]2 [G,F][K:bass] [C,G,]3 | %8
 [C,C]>[C,G,][C,C] [C,G,]<[C,G,][C,G,] | [D,G,]2 [G,,G,] [D,G,]3 | %10
 [G,DF]>[G,B,F][G,DF] [G,DF][G,DF][G,B,F] | [C,C]2 [C,C] [C,C]3 | %12
 [C,G,][C,C][E,C] [D,G,B,][D,G,][F,B,D] | [E,C]2 [C,C] [F,A,F]3 | %14
 [^F,A,_E][F,A,E][F,A,E][K:treble] [G,C=E][G,EG][G,CG] | [G,DG]2 [G,F][K:bass] [C,G,]3 |] %16

